X: 02105
T: PRISSY'S WHOOPIE NEW YEAR!
C: Bob McQuillen 1 Jan'74
B: Bob's Note Book 1&2 #105
%R: reel
Z: 2019 John Chambers <jc:trillian.mit.edu>
M: C
L: 1/8
K: A
(3(efg) \
| a2ed cece | dfed c2 (3(efg) | a2ed cece | d2B2 B2ed |
| cece cAce | dcde fgaf | eagf edcB | c2A2 A2 :|
|: AB \
| cBcd edBd | c2A2 A2Bc | dedc BcBA | G2E2 E2ed |
| cece cAGA | FBBc dBBA | GABc dfed | c2A2 A2 :|
%%begintext align
%% With love always.
%%endtext

%%sep 1 1 500

%%sep 1 1 500

